X: 46
T: Kleszczmy rękoma wszyscy zgodliwie,
C: Mikołaj Gomółka
%%abc-version 2.0
%%abcx-abcm2ps-target-version 5.9.1 (29 Sep 2008)
%%abc-creator hum2abc beta
%%abcx-conversion-date 2021/10/04 07:59:09
%%abc-edited-by Anna Matuszewska
%%abcx-initial-encoding-date 2020-02-09
%%humdrum-veritas 3435805630
%%humdrum-veritas-data 1709284009
%%linebreak <none>
%%barnumbers 0
L: 1/4
M: 3/2
N: Derived from pl-wn--sd-xvi-qu-273--047_gomolka-mikolaj--kleszczmy-rekoma-wszyscy-zgodliwie.krn
%%staves [1 2 3 4]
V: 1 clef=treble
V: 2
V: 3 clef=alto
V: 4
K: F
[V:1] c4c2 [I:setbarnb 3][|] 
[V:2] A4A2 [|] 
[V:3] F4F2 [|] 
[V:4] F,4F,2 [|] 
[V:1] d4d2 [|] 
[V:2] B4B2 [|] 
[V:3] D4D2 [|] 
[V:4] B,4B,2 [|] 
[V:1] c6 [|] 
[V:2] G6 [|] 
[V:3] E6 [|] 
[V:4] C6 [|] 
[V:1] B4B2 [|] 
[V:2] G4F2 [|] 
[V:3] D2>C2D2 [|] 
[V:4] G,2>A,2B,2 [|] 
[V:1] G4G2 [|] 
[V:2] C4C2 [|] 
[V:3] E2>D2E2 [|] 
[V:4] C4C2 [|] 
[V:1] A6 [|] 
[V:2] C6 [|] 
[V:3] F6 [|] 
[V:4] F,6 [|] 
[V:1] c2d2e2 [|] 
[V:2] F2D2C2 [|] 
[V:3] A2G2G2 [|] 
[V:4] F,2B,2C2 [|] 
[V:1] f4f2 [|] 
[V:2] C4F2 [|] 
[V:3] F2>E2DC [|] 
[V:4] F,4F,2 [|] 
[V:1] d4d2 [|] 
[V:2] F4G2 [|] 
[V:3] D4D2 [|] 
[V:4] B,2>A,2G,2 [|] 
[V:1] g2>f2d2 [|] 
[V:2] G4G2 [|] 
[V:3] C2C2B,2 [|] 
[V:4] C,D,E,F,G,2 [|] 
[V:1] e6 [|] 
[V:2] G6 [|] 
[V:3] C6 [|] 
[V:4] C,6 [|] 
[V:1] f2e2d2 [|] 
[V:2] A2GAB2 [|] 
[V:3] CDE2F2 [|] 
[V:4] F,2C2B,2 [|] 
[V:1] c4B2 [|] 
[V:2] F2EFG2 [|] 
[V:3] C4G,2 [|] 
[V:4] A,4G,2 [|] 
[V:1] A2>G2F2 [|] 
[V:2] C4D2 [|] 
[V:3] A,4B,2 [|] 
[V:4] F,2>E,2D,2 [|] 
[V:1] c2>B2G2 [|] 
[V:2] E2>D2E2 [|] 
[V:3] C4C2 [|] 
[V:4] C,4C,2 [|] 
[V:1] A6 [|] 
[V:2] F6 [|] 
[V:3] C6 [|] 
[V:4] F,6 [|] 


